X: 30883
T: Out The Buttergate
R: jig
M: 6/8
K: Amixolydian
|:ced BAB|GEF ~G3|e/f/gf edd|cde ~g3|
ced BAB|GEF G2B|ced BAG|1 EAE A2B:|2 ABA A3||
|:AB/c/d ~e3|cde ~g3|ceg ~a3|bag gag|
ede ged|GB/c/d ~e2d|egf edB|ABG A3:|

